assets/icons/qvision/imagesearch_roller.svg

<svg xmlns="http://www.w3.org/2000/svg" height="24" viewBox="0 0 24 24" width="24"><path d="M0 0h24v24H0z" fill="none"/><path d="M20 2v6H6V6H4v4h10v5h2v8h-6v-8h2v-3H2V4h4V2"/></svg>

<svg width="24" height="24" viewBox="0 0 24 24" fill="none" xmlns="http://www.w3.org/2000/svg">
<g clip-path="url(#clip0_147_5962)">
<path d="M20 2V8H6V6H4V10H14V15H16V23H10V15H12V12H2V4H6V2" fill="#323232"/>
</g>
<defs>
<clipPath id="clip0_147_5962">
<rect width="24" height="24" fill="white"/>
</clipPath>
</defs>
</svg>
